!!!COM: Music21
!!!OTL: Pasacalles
!!!OMV: pezas_pasacorredoiras_pasacalles_pasacalles-partitura.musicxml
**kern
*I"Bagpipes
*I'Bag
*clefG^2
*k[]
*M2/4
=1
!LO:TX:a:t=Allegretto
*MM120
!LO:TX:a:t=[quarter]=120
8.cccL
16bb-XJk
16aaLL
16gg
16aa
16bb-JJ
=
8.ggL
16eeJk
8ccL
8ddJ
=
8eeL
16ddL
16eeJJ
16ggLL
16ee
16ff
16ddJJ
=
16eeLL
16ff
16dd
16eeJJ
4cc
=
8.cccL
16bb-XJk
16aaLL
16gg
16aa
16bb-JJ
=
8.ggL
16eeJk
8ccL
8ddJ
=
8eeL
16ddL
16eeJJ
16ggLL
16ee
16ff
16ddJJ
!!linebreak:original
=
2cc
=||
*M2/4
!LO:TX:a:t=Allegretto
*MM120
!LO:TX:a:t=[quarter]=120
8.cccL
16bb-XJk
16aaLL
16gg
16aa
16bb-JJ
=
8.ggL
16eeJk
8ccL
8ddJ
=
8eeL
16ddL
16eeJJ
16ggLL
16ee
16ff
16ddJJ
=
16eeLL
16ff
16dd
16eeJJ
4cc
=
8.cccL
16bb-XJk
16aaLL
16gg
16aa
16bb-JJ
=
8.ggL
16eeJk
8ccL
8ddJ
!!linebreak:original
=
8eeL
16ddL
16eeJJ
16ggLL
16ee
16ff
16ddJJ
!!linebreak:original
=
2cc
=||
8.ddL
16bJk
16ddLL
16b
16dd
16ffJJ
=
8.eeL
16ccJk
16eeLL
16cc
16ee
16ggJJ
=
16ffLL
16gg
16ff
16eeJJ
16ffLL
16dd
16ff
16ddJJ
=
16eeLL
16ff
16dd
16eeJJ
4cc
=
8.ddL
16bJk
16ddLL
16b
16dd
16ffJJ
=
8.eeL
16ccJk
16eeLL
16cc
16ee
16ggJJ
!!linebreak:original
=
16ffLL
16gg
16ff
16eeJJ
16ffLL
16dd
16b
16ddJJ
=
2cc
=||
8.ddL
16bJk
16ddLL
16b
16dd
16ffJJ
=
8.eeL
16ccJk
16eeLL
16cc
16ee
16ggJJ
=
16ffLL
16gg
16ff
16eeJJ
16ffLL
16dd
16ff
16ddJJ
=
16eeLL
16ff
16dd
16eeJJ
4cc
=
8.ddL
16bJk
16ddLL
16b
16dd
16ffJJ
!!linebreak:original
=
8.eeL
16ccJk
16eeLL
16cc
16ee
16ggJJ
!!linebreak:original
=
16ffLL
16gg
16ff
16eeJJ
16ffLL
16dd
16b
16ddJJ
=
2cc
=||
*-
